X: 182
M:6/8
L:1/8
K:G
|:G/B/:| d2 B e2 2|d3 d2 G/B/| d2 B e2 e| d3 d2 G/A/|B2 B BAB| c2 d efg|d2 c B2 A| G3 G3:|

